X:2083
T:Ta billey beg glass ayns garey my yishag 
C:Charles Faragher, Cross Four Ways
O:Isle of Man
S:Traditional 
Z:Clague collection
B:Kiaull Vannin #83 
M:2/4 
L:1/4
Q:50 
K:D 
D|D D/E/|d c/B/|F E/D/|D d|d f/e/|d F/F/|E F/^G/|A d| 
d/e/ f/g/|f e/c/|d D/E/|D D|D D|B A/F/|E D/D/|D|| 

